X: 16
T: Wanyue yiyang de liandao
L: 1/16
M: 2/4
K: F
d2 d2 d c d e [I:setbarnb 1]| 
f4e d e g | 
d4d c d f | 
f d c AA4 | 
c2 c2 c A A c | 
d c d f f d c A | 
A2> G2 A c d c | 
A8 | 
F2 F2 F G A c | 
c2 c d d c A c | 
G2> A2 A G F G | 
F2< D2D4 | 
F2 F2 F G A c | 
c2 c f d c A2 | 
G F G A A G F D | 
D8 |]

@@@ Tune index: 8684
